X:24
T:Pour passer le Rhône
R:---
C:Provence
I:abc2nwc
M:2/4
L:1/16
K:Eb
c2g2 g4|f4g2g2|d2f2 e4|d4e2c2|c2g2 g4|
f4g2g2|d2f2 e4|d4c4|c2d2 e2e2|d2d2 c2G2|
c2d2 e4|d4c4|c2d2 e2e2|d2d2 c2G2|c2d2 e4|d4c4|]

%%footer $D   Galouvielle-MBe 2006 \n--- (--)
